X: 359
T:Wedding Reel
N: page 128
N: pentatonic
R: Reel
M:4/4
L:1/8
K:D major
DE |:\
"D"F2 BF AFEF | "Em"D2 DE FABd | "Bm"e2 fd efdB | "A"ABde dBAG |\
"D"F2 BF AFEF |
"G"D2 DE FABd | "Bm"e2 fd efdB | [1"A"ABde d2 DE :|\
[2"A"ABde d3 B |\
|: "D"A3 f edfd | "Em"A3 f edfd | "Bm"ABdA BdAB |
"A"dBAF E2 "G"DE |\
"D"F2 BF AFEF | "G"D2 DE FABd | "Bm"e2 fd efdB | "A"ABde d3 B :|
